svg/emoji_u1f438.svg

<svg width="128" height="128" xmlns="http://www.w3.org/2000/svg"><path d="M125.52 61.13c-1.46-4.33-2.75-8.61-4.52-12.88-.76-1.85-1.4-3.19-1.59-5.16-.4-4.17 1.57-8.05 1.83-12.24.32-4.91-.22-9.91-2.05-14.51-.97-2.41-2.58-4.83-4.6-6.42-8.41-6.68-22.38-6.17-30.7.39-2.94 2.33-4.15 6.07-6.57 8.83-2.57 2.94-24.06 2.94-26.63 0-2.42-2.76-3.63-6.5-6.57-8.83-8.32-6.56-22.3-7.07-30.71-.39-2.01 1.59-3.62 4.01-4.58 6.42-1.84 4.6-2.38 9.6-2.07 14.51.28 4.19 2.24 8.07 1.84 12.24-.19 1.97-.83 3.31-1.59 5.16-1.78 4.27-3.06 8.56-4.52 12.88C-2.06 74.57.46 91.9 9.57 102.78c6.87 8.21 17.27 13.88 27.41 16.87 8.62 2.55 17.83 3.21 26.79 3.21h.46c8.96 0 18.17-.66 26.79-3.21 10.13-3 20.54-8.66 27.41-16.87 9.11-10.88 11.63-28.21 7.09-41.65z" fill="#bdcf46"/><path d="M77.02 38.17c1.84-.04 3.86 1.37 3.38 4-.55 3.04-5.55 2.63-6.1-.32-.46-2.47 1.07-3.65 2.72-3.68zm-26.51 0c1.67.03 3.19 1.21 2.72 3.68-.55 2.95-5.55 3.36-6.1.32-.48-2.63 1.54-4.03 3.38-4zm-31.6-13.95c0-4.82 3.15-8.72 6.98-8.72 3.86 0 6.99 3.9 6.99 8.72 0 4.81-3.14 8.72-6.99 8.72-3.83 0-6.98-3.91-6.98-8.72zm82.73 8.72c-3.85 0-6.99-3.91-6.99-8.72 0-4.82 3.14-8.72 6.99-8.72s6.99 3.9 6.99 8.72c0 4.81-3.14 8.72-6.99 8.72z" fill="#2f2f2f"/><path d="M63.92 70.64c-25.47 0-42.84-16.44-40.33-21.62 2.5-5.19 19.99 5.88 40.32 5.88 20.28-.01 37.78-11.08 40.27-5.88 2.51 5.19-14.85 21.62-40.26 21.62z" fill="#ed6c30"/></svg>

<?xml version="1.0" encoding="utf-8"?>
<!-- Generator: Adobe Illustrator 16.0.0, SVG Export Plug-In . SVG Version: 6.00 Build 0)  -->
<!DOCTYPE svg PUBLIC "-//W3C//DTD SVG 1.1//EN" "http://www.w3.org/Graphics/SVG/1.1/DTD/svg11.dtd">
<svg version="1.1" id="レイヤー_1" xmlns="http://www.w3.org/2000/svg" xmlns:xlink="http://www.w3.org/1999/xlink" x="0px"
	 y="0px" width="128px" height="128px" viewBox="0 0 128 128" enable-background="new 0 0 128 128" xml:space="preserve">
<g>
	<path fill="#BDCF46" d="M125.52,61.13c-1.46-4.33-2.75-8.61-4.52-12.88c-0.76-1.85-1.4-3.19-1.59-5.16
		c-0.4-4.17,1.57-8.05,1.83-12.24c0.32-4.91-0.22-9.91-2.05-14.51c-0.97-2.41-2.58-4.83-4.6-6.42c-8.41-6.68-22.38-6.17-30.7,0.39
		c-2.94,2.33-4.15,6.07-6.57,8.83c-2.57,2.94-24.06,2.94-26.63,0c-2.42-2.76-3.63-6.5-6.57-8.83c-8.32-6.56-22.3-7.07-30.71-0.39
		c-2.01,1.59-3.62,4.01-4.58,6.42c-1.84,4.6-2.38,9.6-2.07,14.51C7.04,35.04,9,38.92,8.6,43.09c-0.19,1.97-0.83,3.31-1.59,5.16
		c-1.78,4.27-3.06,8.56-4.52,12.88c-4.55,13.44-2.03,30.77,7.08,41.65c6.87,8.21,17.27,13.88,27.41,16.87
		c8.62,2.55,17.83,3.21,26.79,3.21h0.46c8.96,0,18.17-0.66,26.79-3.21c10.13-3,20.54-8.67,27.41-16.87
		C127.54,91.9,130.06,74.57,125.52,61.13z"/>
	<path fill="#2F2F2F" d="M77.02,38.17c1.84-0.04,3.86,1.37,3.38,4c-0.55,3.04-5.55,2.63-6.1-0.32
		C73.84,39.38,75.37,38.2,77.02,38.17z M50.51,38.17c1.67,0.03,3.19,1.21,2.72,3.68c-0.55,2.95-5.55,3.36-6.1,0.32
		C46.65,39.54,48.67,38.14,50.51,38.17z M18.91,24.22c0-4.82,3.15-8.72,6.98-8.72c3.86,0,6.99,3.9,6.99,8.72
		c0,4.81-3.14,8.72-6.99,8.72C22.06,32.94,18.91,29.03,18.91,24.22z M101.64,32.94c-3.85,0-6.99-3.91-6.99-8.72
		c0-4.82,3.14-8.72,6.99-8.72c3.85,0,6.99,3.9,6.99,8.72C108.63,29.03,105.49,32.94,101.64,32.94z"/>
	<path fill="#ED6C30" d="M63.92,70.64c-25.47,0-42.84-16.44-40.33-21.62c2.5-5.19,19.99,5.88,40.32,5.88
		c20.28-0.01,37.78-11.08,40.27-5.88C106.69,54.21,89.33,70.64,63.92,70.64z"/>
</g>
</svg>
